X: 118
T:LITB
M:6/8
L:1/8
F:http://blackrosetheband.googlepages.com/ABCTUNES.ABC May 2009
C:E. Haskell
R:J
K:G
D|"G"G2B dBG|"Am"A2c e2d|"G"^cdg e2=c|"D"A3A2 D|
"G"G2B dBG|"Am"A2c e2d|"G"^cdg "D"e=cA|"G"G3 G2:|
|"B"BcB ABA|GAG F2F|"Em"EFG ^GA^A|B3 B3|
"A"ABA GAG|FGF E2E|"D"FG^G AfA|d3 d2D|
"G"G2B dBG|"Am"A2c e2d|"G"^cdg e2=c|"D"A3A2 D|
"G"G2B dBG|"Am"A2c e2d|"G"^cdg "D"e=cA|"G"G3 G2D||

